images/6604347.svg

<?xml version="1.0" encoding="UTF-8"?>
<svg xmlns="http://www.w3.org/2000/svg" xmlns:xlink="http://www.w3.org/1999/xlink" width="300pt" height="300pt" viewBox="0 0 300 300" version="1.1">
<defs>
<g>
<symbol overflow="visible" id="glyph0-0">
<path style="stroke:none;" d="M 0.640625 2.296875 L 0.640625 -9.171875 L 7.140625 -9.171875 L 7.140625 2.296875 Z M 1.375 1.578125 L 6.421875 1.578125 L 6.421875 -8.4375 L 1.375 -8.4375 Z M 1.375 1.578125 "/>
</symbol>
<symbol overflow="visible" id="glyph0-1">
<path style="stroke:none;" d="M 1.28125 -9.484375 L 3 -9.484375 L 7.203125 -1.546875 L 7.203125 -9.484375 L 8.453125 -9.484375 L 8.453125 0 L 6.71875 0 L 2.515625 -7.921875 L 2.515625 0 L 1.28125 0 Z M 1.28125 -9.484375 "/>
</symbol>
<symbol overflow="visible" id="glyph0-2">
<path style="stroke:none;" d="M 1.28125 -9.484375 L 2.5625 -9.484375 L 2.5625 -5.59375 L 7.21875 -5.59375 L 7.21875 -9.484375 L 8.5 -9.484375 L 8.5 0 L 7.21875 0 L 7.21875 -4.515625 L 2.5625 -4.515625 L 2.5625 0 L 1.28125 0 Z M 1.28125 -9.484375 "/>
</symbol>
<symbol overflow="visible" id="glyph0-3">
<path style="stroke:none;" d="M 5.125 -8.609375 C 4.1875 -8.609375 3.441406 -8.257812 2.890625 -7.5625 C 2.347656 -6.875 2.078125 -5.929688 2.078125 -4.734375 C 2.078125 -3.535156 2.347656 -2.585938 2.890625 -1.890625 C 3.441406 -1.203125 4.1875 -0.859375 5.125 -0.859375 C 6.050781 -0.859375 6.785156 -1.203125 7.328125 -1.890625 C 7.878906 -2.585938 8.15625 -3.535156 8.15625 -4.734375 C 8.15625 -5.929688 7.878906 -6.875 7.328125 -7.5625 C 6.785156 -8.257812 6.050781 -8.609375 5.125 -8.609375 Z M 5.125 -9.65625 C 6.445312 -9.65625 7.503906 -9.207031 8.296875 -8.3125 C 9.097656 -7.414062 9.5 -6.222656 9.5 -4.734375 C 9.5 -3.234375 9.097656 -2.035156 8.296875 -1.140625 C 7.503906 -0.253906 6.445312 0.1875 5.125 0.1875 C 3.789062 0.1875 2.722656 -0.253906 1.921875 -1.140625 C 1.128906 -2.035156 0.734375 -3.234375 0.734375 -4.734375 C 0.734375 -6.222656 1.128906 -7.414062 1.921875 -8.3125 C 2.722656 -9.207031 3.789062 -9.65625 5.125 -9.65625 Z M 5.125 -9.65625 "/>
</symbol>
</g>
</defs>
<g id="surface48041">
<rect x="0" y="0" width="300" height="300" style="fill:rgb(100%,100%,100%);fill-opacity:1;stroke:none;"/>
<path style="fill:none;stroke-width:1.2;stroke-linecap:butt;stroke-linejoin:miter;stroke:rgb(0%,0%,0%);stroke-opacity:1;stroke-miterlimit:10;" d="M 79.535156 220.328125 L 102.695312 196.703125 "/>
<path style="fill:none;stroke-width:1.2;stroke-linecap:butt;stroke-linejoin:miter;stroke:rgb(0%,0%,0%);stroke-opacity:1;stroke-miterlimit:10;" d="M 102.695312 196.703125 L 93.816406 164.835938 "/>
<path style="fill:none;stroke-width:1.2;stroke-linecap:butt;stroke-linejoin:miter;stroke:rgb(0%,0%,0%);stroke-opacity:1;stroke-miterlimit:10;" d="M 93.816406 164.835938 L 62.816406 153.285156 "/>
<path style="fill:none;stroke-width:1.2;stroke-linecap:butt;stroke-linejoin:miter;stroke:rgb(0%,0%,0%);stroke-opacity:1;stroke-miterlimit:10;" d="M 93.433594 156.386719 L 68.632812 147.148438 "/>
<path style="fill:none;stroke-width:1.2;stroke-linecap:butt;stroke-linejoin:miter;stroke:rgb(0%,0%,0%);stroke-opacity:1;stroke-miterlimit:10;" d="M 114.382812 138.921875 L 93.816406 164.835938 "/>
<path style="fill:none;stroke-width:1.2;stroke-linecap:butt;stroke-linejoin:miter;stroke:rgb(0%,0%,0%);stroke-opacity:1;stroke-miterlimit:10;" d="M 62.816406 153.285156 L 63.519531 136.757812 "/>
<path style="fill:none;stroke-width:1.2;stroke-linecap:butt;stroke-linejoin:miter;stroke:rgb(0%,0%,100%);stroke-opacity:1;stroke-miterlimit:10;" d="M 63.519531 136.757812 L 64.21875 120.234375 "/>
<path style="fill:none;stroke-width:1.2;stroke-linecap:butt;stroke-linejoin:miter;stroke:rgb(0%,0%,0%);stroke-opacity:1;stroke-miterlimit:10;" d="M 62.816406 153.285156 L 35.25 171.578125 "/>
<path style="fill:none;stroke-width:1.2;stroke-linecap:butt;stroke-linejoin:miter;stroke:rgb(0%,0%,100%);stroke-opacity:1;stroke-miterlimit:10;" d="M 64.21875 120.234375 L 80.15625 115.792969 "/>
<path style="fill:none;stroke-width:1.2;stroke-linecap:butt;stroke-linejoin:miter;stroke:rgb(0%,0%,0%);stroke-opacity:1;stroke-miterlimit:10;" d="M 80.15625 115.792969 L 96.089844 111.355469 "/>
<path style=" stroke:none;fill-rule:nonzero;fill:rgb(100%,100%,100%);fill-opacity:1;" d="M 54.21875 112.234375 L 74.21875 112.234375 L 74.21875 128.234375 L 54.21875 128.234375 Z M 54.21875 112.234375 "/>
<g style="fill:rgb(0%,0%,100%);fill-opacity:1;">
  <use xlink:href="#glyph0-1" x="54.21875" y="124.610352"/>
  <use xlink:href="#glyph0-2" x="64.188477" y="124.610352"/>
</g>
<path style="fill:none;stroke-width:1.2;stroke-linecap:butt;stroke-linejoin:miter;stroke:rgb(0%,0%,0%);stroke-opacity:1;stroke-miterlimit:10;" d="M 96.089844 111.355469 L 114.382812 138.921875 "/>
<path style="fill:none;stroke-width:1.2;stroke-linecap:butt;stroke-linejoin:miter;stroke:rgb(0%,0%,0%);stroke-opacity:1;stroke-miterlimit:10;" d="M 104.40625 109.808594 L 119.039062 131.859375 "/>
<path style="fill:none;stroke-width:1.2;stroke-linecap:butt;stroke-linejoin:miter;stroke:rgb(0%,0%,0%);stroke-opacity:1;stroke-miterlimit:10;" d="M 110.816406 81.730469 L 96.089844 111.355469 "/>
<path style="fill:none;stroke-width:1.2;stroke-linecap:butt;stroke-linejoin:miter;stroke:rgb(0%,0%,0%);stroke-opacity:1;stroke-miterlimit:10;" d="M 114.382812 138.921875 L 147.402344 136.863281 "/>
<path style="fill:none;stroke-width:1.2;stroke-linecap:butt;stroke-linejoin:miter;stroke:rgb(0%,0%,0%);stroke-opacity:1;stroke-miterlimit:10;" d="M 144.15625 139.015625 L 153.304688 152.796875 "/>
<path style="fill:none;stroke-width:1.2;stroke-linecap:butt;stroke-linejoin:miter;stroke:rgb(100%,0%,0%);stroke-opacity:1;stroke-miterlimit:10;" d="M 153.304688 152.796875 L 162.449219 166.578125 "/>
<path style="fill:none;stroke-width:1.2;stroke-linecap:butt;stroke-linejoin:miter;stroke:rgb(0%,0%,0%);stroke-opacity:1;stroke-miterlimit:10;" d="M 150.644531 134.710938 L 159.789062 148.492188 "/>
<path style="fill:none;stroke-width:1.2;stroke-linecap:butt;stroke-linejoin:miter;stroke:rgb(100%,0%,0%);stroke-opacity:1;stroke-miterlimit:10;" d="M 159.789062 148.492188 L 168.9375 162.277344 "/>
<path style="fill:none;stroke-width:1.2;stroke-linecap:butt;stroke-linejoin:miter;stroke:rgb(0%,0%,0%);stroke-opacity:1;stroke-miterlimit:10;" d="M 147.402344 136.863281 L 162.128906 107.238281 "/>
<path style=" stroke:none;fill-rule:nonzero;fill:rgb(100%,100%,100%);fill-opacity:1;" d="M 160.691406 156.425781 L 171.691406 156.425781 L 171.691406 172.425781 L 160.691406 172.425781 Z M 160.691406 156.425781 "/>
<g style="fill:rgb(100%,0%,0%);fill-opacity:1;">
  <use xlink:href="#glyph0-3" x="160.691406" y="168.801758"/>
</g>
<path style="fill:none;stroke-width:1.2;stroke-linecap:butt;stroke-linejoin:miter;stroke:rgb(0%,0%,0%);stroke-opacity:1;stroke-miterlimit:10;" d="M 162.128906 107.238281 L 143.835938 79.671875 "/>
<path style=" stroke:none;fill-rule:nonzero;fill:rgb(0%,0%,0%);fill-opacity:1;" d="M 162.128906 107.238281 L 195.507812 111.003906 L 194.78125 99.351562 Z M 162.128906 107.238281 "/>
<path style="fill:none;stroke-width:1.2;stroke-linecap:butt;stroke-linejoin:miter;stroke:rgb(0%,0%,0%);stroke-opacity:1;stroke-miterlimit:10;" d="M 143.835938 79.671875 L 110.816406 81.730469 "/>
<path style="fill:none;stroke-width:1.2;stroke-linecap:butt;stroke-linejoin:miter;stroke:rgb(0%,0%,0%);stroke-opacity:1;stroke-miterlimit:10;" d="M 195.144531 105.179688 L 204.292969 118.960938 "/>
<path style="fill:none;stroke-width:1.2;stroke-linecap:butt;stroke-linejoin:miter;stroke:rgb(0%,0%,100%);stroke-opacity:1;stroke-miterlimit:10;" d="M 204.292969 118.960938 L 213.4375 132.746094 "/>
<path style="fill:none;stroke-width:1.2;stroke-linecap:butt;stroke-linejoin:miter;stroke:rgb(0%,0%,100%);stroke-opacity:1;stroke-miterlimit:10;" d="M 213.4375 132.746094 L 206.074219 147.558594 "/>
<path style="fill:none;stroke-width:1.2;stroke-linecap:butt;stroke-linejoin:miter;stroke:rgb(0%,0%,0%);stroke-opacity:1;stroke-miterlimit:10;" d="M 206.074219 147.558594 L 198.710938 162.367188 "/>
<path style="fill:none;stroke-width:1.2;stroke-linecap:butt;stroke-linejoin:miter;stroke:rgb(0%,0%,0%);stroke-opacity:1;stroke-miterlimit:10;" d="M 246.457031 130.6875 L 229.949219 131.714844 "/>
<path style="fill:none;stroke-width:1.2;stroke-linecap:butt;stroke-linejoin:miter;stroke:rgb(0%,0%,100%);stroke-opacity:1;stroke-miterlimit:10;" d="M 229.949219 131.714844 L 213.4375 132.746094 "/>
<path style=" stroke:none;fill-rule:nonzero;fill:rgb(100%,100%,100%);fill-opacity:1;" d="M 208.4375 124.746094 L 218.4375 124.746094 L 218.4375 140.746094 L 208.4375 140.746094 Z M 208.4375 124.746094 "/>
<g style="fill:rgb(0%,0%,100%);fill-opacity:1;">
  <use xlink:href="#glyph0-1" x="208.4375" y="137.12207"/>
</g>
<path style="fill:none;stroke-width:1.2;stroke-linecap:butt;stroke-linejoin:miter;stroke:rgb(0%,0%,0%);stroke-opacity:1;stroke-miterlimit:10;" d="M 198.710938 162.367188 L 217.003906 189.933594 "/>
<path style="fill:none;stroke-width:1.2;stroke-linecap:butt;stroke-linejoin:miter;stroke:rgb(0%,0%,0%);stroke-opacity:1;stroke-miterlimit:10;" d="M 217.003906 189.933594 L 233.515625 188.90625 "/>
<path style="fill:none;stroke-width:1.2;stroke-linecap:butt;stroke-linejoin:miter;stroke:rgb(100%,0%,0%);stroke-opacity:1;stroke-miterlimit:10;" d="M 233.515625 188.90625 L 250.023438 187.875 "/>
<path style="fill:none;stroke-width:1.2;stroke-linecap:butt;stroke-linejoin:miter;stroke:rgb(100%,0%,0%);stroke-opacity:1;stroke-miterlimit:10;" d="M 250.023438 187.875 L 257.386719 173.0625 "/>
<path style="fill:none;stroke-width:1.2;stroke-linecap:butt;stroke-linejoin:miter;stroke:rgb(0%,0%,0%);stroke-opacity:1;stroke-miterlimit:10;" d="M 257.386719 173.0625 L 264.75 158.25 "/>
<path style=" stroke:none;fill-rule:nonzero;fill:rgb(100%,100%,100%);fill-opacity:1;" d="M 245.023438 179.875 L 256.023438 179.875 L 256.023438 195.875 L 245.023438 195.875 Z M 245.023438 179.875 "/>
<g style="fill:rgb(100%,0%,0%);fill-opacity:1;">
  <use xlink:href="#glyph0-3" x="245.023438" y="192.250977"/>
</g>
<path style="fill:none;stroke-width:1.2;stroke-linecap:butt;stroke-linejoin:miter;stroke:rgb(0%,0%,0%);stroke-opacity:1;stroke-miterlimit:10;" d="M 264.75 158.25 L 246.457031 130.6875 "/>
</g>
</svg>

<svg xmlns="http://www.w3.org/2000/svg" xmlns:xlink="http://www.w3.org/1999/xlink" width="300pt" height="300pt" viewBox="0 0 300 300"><defs><symbol overflow="visible"><path d="M.64 2.297v-11.47h6.5v11.47zm.735-.72h5.047V-8.436H1.375zm0 0"/></symbol><symbol overflow="visible" id="a"><path d="M1.28-9.484H3l4.203 7.937v-7.937h1.25V0H6.72L2.515-7.922V0H1.28zm0 0"/></symbol><symbol overflow="visible" id="b"><path d="M1.28-9.484h1.282v3.89H7.22v-3.89H8.5V0H7.22v-4.516H2.562V0H1.28zm0 0"/></symbol><symbol overflow="visible" id="c"><path d="M5.125-8.61c-.938 0-1.684.352-2.234 1.047-.542.688-.812 1.633-.812 2.83 0 1.198.27 2.147.813 2.842.55.687 1.297 1.03 2.235 1.03.926 0 1.66-.343 2.203-1.03.55-.696.828-1.645.828-2.844 0-1.196-.277-2.14-.828-2.829-.543-.695-1.277-1.046-2.203-1.046zm0-1.046c1.32 0 2.38.45 3.172 1.344.8.898 1.203 2.09 1.203 3.578 0 1.5-.402 2.7-1.203 3.593C7.504-.255 6.445.186 5.125.186c-1.336 0-2.402-.44-3.203-1.328C1.13-2.036.734-3.235.734-4.735c0-1.49.395-2.68 1.188-3.579.8-.894 1.867-1.343 3.203-1.343zm0 0"/></symbol></defs><g><path fill="#fff" d="M0 0h300v300H0z"/><path d="M79.535 220.328l23.16-23.625M102.695 196.703l-8.88-31.867M93.816 164.836l-31-11.55M93.434 156.387l-24.8-9.24M114.383 138.922l-20.567 25.914M62.816 153.285l.704-16.527" stroke-width="1.2" stroke="#000" stroke-miterlimit="10" fill="none"/><path d="M63.52 136.758l.7-16.524" stroke-width="1.2" stroke="#00f" stroke-miterlimit="10" fill="none"/><path d="M62.816 153.285L35.25 171.578" stroke-width="1.2" stroke="#000" stroke-miterlimit="10" fill="none"/><path d="M64.22 120.234l15.936-4.44" stroke-width="1.2" stroke="#00f" stroke-miterlimit="10" fill="none"/><path d="M80.156 115.793l15.934-4.438" stroke-width="1.2" stroke="#000" stroke-miterlimit="10" fill="none"/><path d="M54.22 112.234h20v16h-20zm0 0" fill="#fff"/><g fill="#00f"><use xlink:href="#a" x="54.219" y="124.61"/><use xlink:href="#b" x="64.188" y="124.61"/></g><path d="M96.09 111.355l18.293 27.567M104.406 109.81l14.633 22.05M110.816 81.73L96.09 111.355M114.383 138.922l33.02-2.06M144.156 139.016l9.15 13.78" stroke-width="1.2" stroke="#000" stroke-miterlimit="10" fill="none"/><path d="M153.305 152.797l9.144 13.78" stroke-width="1.2" stroke="#f00" stroke-miterlimit="10" fill="none"/><path d="M150.645 134.71l9.144 13.782" stroke-width="1.2" stroke="#000" stroke-miterlimit="10" fill="none"/><path d="M159.79 148.492l9.148 13.785" stroke-width="1.2" stroke="#f00" stroke-miterlimit="10" fill="none"/><path d="M147.402 136.863l14.727-29.625" stroke-width="1.2" stroke="#000" stroke-miterlimit="10" fill="none"/><path d="M160.69 156.426h11v16h-11zm0 0" fill="#fff"/><use xlink:href="#c" x="160.691" y="168.802" fill="#f00"/><path d="M162.13 107.238l-18.294-27.566" stroke-width="1.2" stroke="#000" stroke-miterlimit="10" fill="none"/><path d="M162.13 107.238l33.378 3.766-.727-11.652zm0 0"/><path d="M143.836 79.672l-33.02 2.058M195.145 105.18l9.148 13.78" stroke-width="1.2" stroke="#000" stroke-miterlimit="10" fill="none"/><path d="M204.293 118.96l9.144 13.786M213.438 132.746l-7.364 14.813" stroke-width="1.2" stroke="#00f" stroke-miterlimit="10" fill="none"/><path d="M206.074 147.56l-7.363 14.807M246.457 130.688l-16.508 1.027" stroke-width="1.2" stroke="#000" stroke-miterlimit="10" fill="none"/><path d="M229.95 131.715l-16.512 1.03" stroke-width="1.2" stroke="#00f" stroke-miterlimit="10" fill="none"/><path d="M208.438 124.746h10v16h-10zm0 0" fill="#fff"/><use xlink:href="#a" x="208.438" y="137.122" fill="#00f"/><path d="M198.71 162.367l18.294 27.567M217.004 189.934l16.512-1.028" stroke-width="1.2" stroke="#000" stroke-miterlimit="10" fill="none"/><path d="M233.516 188.906l16.507-1.03M250.023 187.875l7.364-14.813" stroke-width="1.2" stroke="#f00" stroke-miterlimit="10" fill="none"/><path d="M257.387 173.063l7.363-14.813" stroke-width="1.2" stroke="#000" stroke-miterlimit="10" fill="none"/><path d="M245.023 179.875h11v16h-11zm0 0" fill="#fff"/><use xlink:href="#c" x="245.023" y="192.251" fill="#f00"/><path d="M264.75 158.25l-18.293-27.563" stroke-width="1.2" stroke="#000" stroke-miterlimit="10" fill="none"/></g></svg>
